packages/core/src/svgs/tokens/branded/VIDT.svg

<svg width="24" height="24" viewBox="0 0 24 24" fill="none" xmlns="http://www.w3.org/2000/svg">
<path fill-rule="evenodd" clip-rule="evenodd" d="M4.50058 2C5.11683 2 5.75246 2.42312 5.75246 3.79999V17.7525C5.74808 17.8575 5.81183 18.0363 6.09997 17.91C6.38809 17.7837 8.0374 16.9325 8.73623 16.515C8.78625 16.49 8.87565 16.3913 8.87565 16.2024V6.87249C8.87565 6.64187 8.87565 6.05623 9.60248 5.58749C10.1368 5.24187 10.935 5.45061 11.2475 5.66311L19.925 10.6956C20.2099 10.87 20.773 11.2269 20.75 12.0188C20.7268 12.8112 20.1025 13.2075 19.7987 13.3625L5.15497 21.8749C4.88996 21.9938 4.14309 22.1269 3.76435 21.7625C3.33121 21.3449 3.25997 20.9 3.25185 20.7562V3.79999C3.22746 3.23624 3.37747 2 4.50058 2ZM11.6877 15.1056C11.7427 15.1058 11.7968 15.0913 11.8445 15.0638L16.5395 12.3106C16.7451 12.19 16.7438 11.89 16.5376 11.7688L11.8432 9.01628C11.6357 8.89378 11.3757 9.04377 11.3757 9.28499V14.7912C11.3754 14.8463 11.3895 14.9004 11.4169 14.9481C11.4442 14.996 11.4836 15.0356 11.5311 15.0633C11.5787 15.0909 11.6328 15.1055 11.6877 15.1056Z" fill="#00CCDA"/>
</svg>

<svg xmlns="http://www.w3.org/2000/svg" width="24" height="24" fill="none" viewBox="0 0 24 24">
    <path fill="#00CCDA" fill-rule="evenodd" d="M4.5 2c.617 0 1.252.423 1.252 1.8v13.953c-.004.105.06.283.348.157a45 45 0 0 0 2.636-1.395c.05-.025.14-.124.14-.313v-9.33c0-.23 0-.816.726-1.285.535-.345 1.333-.136 1.646.076l8.677 5.033c.285.174.848.53.825 1.323s-.648 1.188-.951 1.344L5.155 21.875c-.265.119-1.012.252-1.39-.113-.434-.417-.505-.862-.513-1.006V3.8C3.227 3.236 3.377 2 4.5 2m7.188 13.106q.084 0 .156-.042l4.696-2.753a.315.315 0 0 0-.002-.542l-4.695-2.753a.31.31 0 0 0-.467.269v5.506a.31.31 0 0 0 .312.315" clip-rule="evenodd"/>
</svg>
